src/svg/resizesoutheast.svg

<svg height="35" viewBox="0 0 35 35" width="35" xmlns="http://www.w3.org/2000/svg"><g fill="none" fill-rule="evenodd"><path d="m11.3945 14.2202 4.949 4.952-2.828 2.828h8.485v-8.486l-2.829 2.829-4.949-4.951z" fill="#fff"/><path d="m14.2227 12.8066 4.949 4.95 1.828-1.829v5.072h-5.07l1.828-1.829-4.949-4.95z" fill="#000"/></g></svg>

<?xml version="1.0" encoding="UTF-8" standalone="no"?>
<svg width="35px" height="35px" viewBox="0 0 35 35" version="1.1" xmlns="http://www.w3.org/2000/svg" xmlns:xlink="http://www.w3.org/1999/xlink">
    <defs></defs>
    <g id="Page-1" stroke="none" stroke-width="1" fill="none" fill-rule="evenodd">
        <g id="resizesoutheast">
            <g id="bg-copy" fill="#FFFFFF" opacity="0.00999999978">
                <rect id="bg" x="0" y="0" width="35" height="35"></rect>
            </g>
            <path d="M11.3945,14.2202 L16.3435,19.1722 L13.5155,22.0002 L22.0005,22.0002 L22.0005,13.5142 L19.1715,16.3432 L14.2225,11.3922 L11.3945,14.2202 Z" id="arrow-border" fill="#FFFFFF"></path>
            <path d="M14.2227,12.8066 L19.1717,17.7566 L20.9997,15.9276 L20.9997,20.9996 L15.9297,20.9996 L17.7577,19.1706 L12.8087,14.2206 L14.2227,12.8066 Z" id="arrow" fill="#000000"></path>
        </g>
    </g>
</svg>
